FINK
CUT[EIN LEBEN WIE IM PARADIES]
REG[Europa, Mitteleuropa, Deutschland]
KEY[F0734  16  D 6/8]
MEL[1_  3__3_5__5_  +1_.56_5__
    3_  4__5_3__1_  2__.0__
    5_  4#__2_5__7_  6_.7+1_7__
    5_  +1_.76_5__4#_  5__.0__
    5_  4__5_7__5_  +1__5_3__
    5_  4__5_3_.45_  2__0__.
    5_  3__5_+1__+2_  +3_.+16_5__
    +1_  +2__+2_7_.67_  +1__7_7b_6_
    4_  5__5_5_.42_  1__.0__ //] >>
FCT[Geselligkeits -, Trink - Lied]
